!! 00000] TT[00
!! NN
!!!OTL: Ganxie gongchan dang
!!!ARE: Asia, China, Shanxi, Zuoquan
!! Ethnic Group: Han
!! I, 275, 1)
!!!SCT: C0069
!!!YEM: Copyright 1995, estate of Helmut Schaffrath.
**kern
*ICvox
*Ivox
*M2/4
*k[f#]
*G:
{8dd
8dd
8b
8gg
=1
8ee
8dd
4b
=2
8gg
8ee
8dd
8ee
=3
8g
8e
4g}
=4
{8b
4dd
8gg
=5
8ee
8dd
8.g
16a
=6
8dd
8b
8a
8g
=7
2d}
==
!!!AGN: Xiaodiao, Xiu hebao diao. Xin minge
!! Variante zu "Beutestickerei", Shanxi). +++BEREITS KODIERT?+++
!!    aber hier andere Tonart. - Neues Volkslied.
!!!ONB: ESAC (Essen Associative Code) Database: CHINA
!!!AMT: simple duple
!!!AIN: vox
!!!EED: Helmut Schaffrath
!!!EEV: 1.0
*-
